X:2
T:Berg\`ere de Coulandon
R:Bourr\'ee
O:France
M:2/4
C:Trad.
K:G
c4B2c2|A6Bc|d3c B2A2|B4G4|\
c4B2c2|A6Bc|d3c B2A2|[G8d8]:|\
|:A3B A2G2|F6G2|A3B cBA2|B4G4|\
A3B A2G2|F6G2|A3B [A2c2][F2B2]|G8:|
